X:1
T:James Gibb editions
T:Abide with me - Barnby
%%score [ ( 1 2 ) ( 3 4 ) ]
L:1/8
Q:1/4=84
M:4/4
K:D
V:1 treble nm="Midi_74"
V:2 treble 
V:3 bass nm="Midi_74"
V:4 bass 
V:1
"^Henry Francis Lyte\n(1793-1847)""^Abide with me (I)""^Joseph Barnby\n(1838-96)""^10 10 10 10" F8 | %1
w: Abide~with~me;~fast~falls~the|
 A2 G2 F4 || F8 | F3 B ^A2 ^G2 | F4 || F8 | A2 G2 E4 || F8 |"^i" E2 D2 D2 E2 | D8 || G8 | F8 |] %12
w: e- ven- tide;|The~darkness~deepens;|Lord, with me a-|bide;|When~other~helpers~fail,~and|com- ~forts flee;|Help~of~the~helpless,|O a- bide with|me.|A-|men.|
V:2
 D8 | F2 E2 D4 || E8 | D3 F ^E2 E2 | F4 || ^D8 | ^D2 E2 C4 || =C8 | B,2 B,2 A,2 C2 | D8 || D8 | %11
 D8 |] %12
V:3
 A,8 | =C2 _B,2 A,4 || ^A,8 | B,3 D C2 B,2 | ^A,4 || %5
"^2. Swift to its close ebbs out life’s little day;\n Earth’s joys grow dim; its glories pass away;\n Change and decay in all around I see;\n O Thou who changest not, abide with me.\n\n3. Not a brief glance I beg, a passing word;\n But as Thou dwell'st with Thy disciples, Lord,\n Familiar, condescending, patient, free.\n Come not to sojourn, but abide with me.\n\n4. Come not in terrors, as the King of kings,\n But kind and good, with healing in Thy wings,\n Tears for all woes, a heart for every plea,\n Come, Friend of sinners, and thus bide with me.\n\n5. Thou on my head in early youth didst smile;\n And, though rebellious and perverse meanwhile,\n Thou hast not left me, oft as I left Thee,\n On to the close, O Lord, abide with me." B,8 | %6
 =C2 B,2 A,4 || %7
"^6. I need Thy presence every passing hour.\n What but Thy grace can foil the tempters power?\n Who, like Thyself, my guide and stay can be?\n Through cloud and sunshine, Lord, abide with me.\n\n7. I fear no foe, with Thee at hand to bless;\n Ills have no weight, and tears no bitterness.\n Where is deaths sting? Where, grave, thy victory?\n I triumph still, if Thou abide with me.\n\n8. Hold Thou Thy cross before my closing eyes;\n Shine through the gloom and point me to the skies.\n Heavens morning breaks, and earths vain shadows flee;\n In life, in death, O Lord, abide with me." A,8 | %8
 G,2 E,2 F,2 G,2 | F,8 || B,8 | A,8 |] %12
V:4
 D,8 | D,2 D,2 D,4 || C,8 | B,,3 B,, C,2 C,2 | F,4 || B,,8 | E,2 E,2 A,,4 || D,8 | %8
 G,,2 G,,2 A,,2 A,,2 | D,8 || G,,8 | D,8 |] %12

